X: 16850
T: Harvest Ricks
R: reel
M: 4/4
K: Dmajor
|:(3BGE|DGGE FGAF|DGGE GDCF|DGGE FGAc|d2 cA B2 GF|
DGGE FGAF|G2 GE FDCF|DGGE FGAc|d2 cA Gd:|
|:(3Ace|f2 de fcAg|f2 de f2 ag|f2 de fcAe|fgfd c2 de|
f2 de fcAe|f2 de f2 ag|abgb fgef|1 d2 cA Gd:|2 d2 cA d2||

